public/cloud-icons/azure/application/managed-application-center.svg

<?xml version="1.0" encoding="UTF-8" standalone="no"?>
<!-- Generated by Microsoft Visio, SVG Export Managed Application Center.svg Page-1 -->

<svg
   xmlns:dc="http://purl.org/dc/elements/1.1/"
   xmlns:cc="http://creativecommons.org/ns#"
   xmlns:rdf="http://www.w3.org/1999/02/22-rdf-syntax-ns#"
   xmlns:svg="http://www.w3.org/2000/svg"
   xmlns="http://www.w3.org/2000/svg"
   xmlns:sodipodi="http://sodipodi.sourceforge.net/DTD/sodipodi-0.dtd"
   xmlns:inkscape="http://www.inkscape.org/namespaces/inkscape"
   width="52.137642"
   height="45.265697"
   viewBox="0 0 52.137644 45.265696"
   xml:space="preserve"
   class="st7"
   version="1.1"
   id="svg44"
   sodipodi:docname="Managed Application Center.svg"
   style="font-size:12px;overflow:visible;color-interpolation-filters:sRGB;fill:none;fill-rule:evenodd;stroke-linecap:square;stroke-miterlimit:3"
   inkscape:version="0.92.5 (2060ec1f9f, 2020-04-08)"><metadata
   id="metadata50"><rdf:RDF><cc:Work
       rdf:about=""><dc:format>image/svg+xml</dc:format><dc:type
         rdf:resource="http://purl.org/dc/dcmitype/StillImage" /></cc:Work></rdf:RDF></metadata><defs
   id="defs48" /><sodipodi:namedview
   pagecolor="#ffffff"
   bordercolor="#666666"
   borderopacity="1"
   objecttolerance="10"
   gridtolerance="10"
   guidetolerance="10"
   inkscape:pageopacity="0"
   inkscape:pageshadow="2"
   inkscape:window-width="640"
   inkscape:window-height="480"
   id="namedview46"
   showgrid="false"
   inkscape:zoom="2.4988167"
   inkscape:cx="26.069838"
   inkscape:cy="10.27923"
   inkscape:window-x="0"
   inkscape:window-y="0"
   inkscape:window-maximized="0"
   inkscape:current-layer="svg44" />
	<style
   type="text/css"
   id="style2">
	<![CDATA[
		.st1 {fill:#3999c6;stroke:none;stroke-linecap:butt;stroke-width:12.24}
		.st2 {fill:#62117a;fill-opacity:0.15;stroke:none;stroke-linecap:butt;stroke-width:12.24}
		.st3 {fill:#59b4d9;stroke:none;stroke-linecap:butt;stroke-width:12.24}
		.st4 {fill:#ffffff;fill-opacity:0.2;stroke:none;stroke-linecap:butt;stroke-width:12.24}
		.st5 {fill:#ffffff;fill-opacity:0.4;stroke:none;stroke-linecap:butt;stroke-width:12.24}
		.st6 {fill:#804998;stroke:none;stroke-linecap:butt;stroke-width:12.24}
		.st7 {fill:none;fill-rule:evenodd;font-size:12px;overflow:visible;stroke-linecap:square;stroke-miterlimit:3}
	]]>
	</style>

	<g
   id="g42"
   transform="translate(-12.24096,-12.235883)">
		<title
   id="title4">Page-1</title>
		<g
   id="group14916-1"
   transform="translate(10.895,-34.0157)">
			<title
   id="title6">Managed Application Center.14916</title>
			<g
   id="group14917-2">
				<title
   id="title8">g16</title>
				<g
   id="shape14918-3"
   transform="translate(28.4135,-2.92529)">
					<title
   id="title10">path4</title>
					<path
   d="m 0.25,82.23 c 0.05,0 0.09,-0.01 0.13,-0.03 L 8.84,77.58 A 0.240819,0.237409 -180 0 0 8.97088,77.369428 L 8.98,68.1 a 0.248148,0.244635 -180 0 0 -0.13088,-0.212636 0.275371,0.271472 -180 0 0 -0.258618,0 L 0.13,72.51 A 0.247101,0.243602 -180 0 0 0.004355,72.721604 L 0,81.99 c 0,0.09 0.05,0.17 0.13,0.21 0.04,0.02 0.08,0.03 0.12,0.03 z m 0,12.21 c 0.05,0 0.09,-0.01 0.13,-0.03 L 8.84,89.79 A 0.240819,0.237409 -180 0 0 8.97088,89.579428 L 8.98,80.31 a 0.248148,0.244635 -180 0 0 -0.13088,-0.212636 0.275371,0.271472 -180 0 0 -0.258618,0 L 0.13,84.72 A 0.247101,0.243602 -180 0 0 0.004355,84.931604 L 0,94.2 c 0,0.09 0.05,0.17 0.13,0.21 0.04,0.02 0.08,0.03 0.12,0.03 z M 11.22,76.13 c 0.05,0 0.09,-0.01 0.13,-0.03 l 8.46,-4.62 a 0.239772,0.236377 -180 0 0 0.129833,-0.210572 L 19.94,62 a 0.248148,0.244635 -180 0 0 -0.13088,-0.212636 0.275371,0.271472 -180 0 0 -0.258618,0 L 11.09,66.4 a 0.247101,0.243602 -180 0 0 -0.125645,0.211604 L 10.97,75.89 c 0,0.09 0.05,0.16 0.12,0.21 a 0.262807,0.259086 -180 0 0 0.127739,0.032 z m 0,12.21 c 0.05,0 0.09,-0.01 0.13,-0.03 l 8.46,-4.62 a 0.238725,0.235345 -180 0 0 0.129833,-0.210572 L 19.94,74.21 a 0.248148,0.244635 -180 0 0 -0.13088,-0.212636 0.275371,0.271472 -180 0 0 -0.258618,0 L 11.09,78.61 a 0.247101,0.243602 -180 0 0 -0.125645,0.211604 L 10.97,88.1 c 0,0.09 0.05,0.16 0.12,0.21 a 0.262807,0.259086 -180 0 0 0.127739,0.032 z"
   class="st1"
   id="path12"
   inkscape:connector-curvature="0"
   style="fill:#3999c6;stroke:none;stroke-width:12.23999977;stroke-linecap:butt" />
				</g>
				<g
   id="shape14919-5"
   transform="translate(28.4135,-2.92529)">
					<title
   id="title15">path6</title>
					<path
   d="m 0.25,94.44 c 0.05,0 0.09,-0.01 0.13,-0.03 L 8.84,89.79 A 0.240819,0.237409 -180 0 0 8.97088,89.579428 L 8.98,80.31 a 0.248148,0.244635 -180 0 0 -0.13088,-0.212636 0.275371,0.271472 -180 0 0 -0.258618,0 L 0.13,84.72 A 0.247101,0.243602 -180 0 0 0.004355,84.931604 L 0,94.2 c 0,0.09 0.05,0.17 0.13,0.21 0.04,0.02 0.08,0.03 0.12,0.03 z m 10.97,-6.1 c 0.05,0 0.09,-0.01 0.13,-0.03 l 8.46,-4.62 a 0.238725,0.235345 -180 0 0 0.129833,-0.210572 L 19.94,74.21 a 0.248148,0.244635 -180 0 0 -0.13088,-0.212636 0.275371,0.271472 -180 0 0 -0.258618,0 L 11.09,78.61 a 0.247101,0.243602 -180 0 0 -0.125645,0.211604 L 10.97,88.1 c 0,0.09 0.05,0.16 0.12,0.21 a 0.262807,0.259086 -180 0 0 0.127739,0.032 z M 0.25,82.23 c 0.05,0 0.09,-0.01 0.13,-0.03 L 8.84,77.58 A 0.240819,0.237409 -180 0 0 8.97088,77.369428 L 8.98,68.1 a 0.248148,0.244635 -180 0 0 -0.13088,-0.212636 0.275371,0.271472 -180 0 0 -0.258618,0 L 0.13,72.51 A 0.247101,0.243602 -180 0 0 0.004355,72.721604 L 0,81.99 c 0,0.09 0.05,0.17 0.13,0.21 0.04,0.02 0.08,0.03 0.12,0.03 z m 10.97,-6.1 c 0.05,0 0.09,-0.01 0.13,-0.03 l 8.46,-4.62 a 0.239772,0.236377 -180 0 0 0.129833,-0.210572 L 19.94,62 a 0.248148,0.244635 -180 0 0 -0.13088,-0.212636 0.275371,0.271472 -180 0 0 -0.258618,0 L 11.09,66.4 a 0.247101,0.243602 -180 0 0 -0.125645,0.211604 L 10.97,75.89 c 0,0.09 0.05,0.16 0.12,0.21 a 0.262807,0.259086 -180 0 0 0.127739,0.032 z"
   class="st2"
   id="path17"
   inkscape:connector-curvature="0"
   style="fill:#62117a;fill-opacity:0.15;stroke:none;stroke-width:12.23999977;stroke-linecap:butt" />
				</g>
				<g
   id="shape14920-7"
   transform="translate(6.47488,-2.92529)">
					<title
   id="title20">path8</title>
					<path
   d="M 19.69,82.23 A 0.269089,0.265279 0 0 1 19.55912,82.198 L 11.1,77.58 A 0.240819,0.237409 0 0 1 10.96912,77.369428 L 10.97,68.1 c 0,-0.09 0.05,-0.17 0.13,-0.21 a 0.275371,0.271472 0 0 1 0.258618,0 L 19.82,72.51 c 0.08,0.04 0.12,0.12 0.12,0.21 v 9.27 a 0.245007,0.241538 0 0 1 -0.125645,0.210572 0.268042,0.264247 0 0 1 -0.126692,0.032 z m 0,12.21 A 0.269089,0.265279 0 0 1 19.55912,94.408 L 11.1,89.79 A 0.240819,0.237409 0 0 1 10.96912,89.579428 L 10.97,80.31 c 0,-0.09 0.05,-0.17 0.13,-0.21 a 0.275371,0.271472 0 0 1 0.258618,0 L 19.82,84.72 c 0.08,0.04 0.12,0.12 0.12,0.21 v 9.27 a 0.245007,0.241538 0 0 1 -0.125645,0.210572 0.268042,0.264247 0 0 1 -0.126692,0.032 z M 8.72,76.13 A 0.269089,0.265279 0 0 1 8.58912,76.098 L 0.13,71.48 A 0.239772,0.236377 0 0 1 1.67e-4,71.269428 L 0,62 c 0,-0.09 0.05,-0.17 0.13,-0.22 a 0.275371,0.271472 0 0 1 0.258618,0 L 8.85,66.4 c 0.08,0.05 0.13,0.13 0.13,0.21 v 9.28 a 0.245007,0.241538 0 0 1 -0.125645,0.210572 0.262807,0.259086 0 0 1 -0.127739,0.032 z m 0,12.21 A 0.269089,0.265279 0 0 1 8.58912,88.308 L 0.13,83.69 A 0.238725,0.235345 0 0 1 1.67e-4,83.479428 L 0,74.21 c 0,-0.09 0.05,-0.17 0.13,-0.22 a 0.275371,0.271472 0 0 1 0.258618,0 L 8.85,78.61 c 0.08,0.05 0.13,0.13 0.13,0.21 v 9.28 a 0.245007,0.241538 0 0 1 -0.125645,0.210572 0.262807,0.259086 0 0 1 -0.127739,0.032 z M 12.4,65.32 a 0.248148,0.244635 0 0 1 0.09423,-0.08774 L 20.9,60.73 a 0.261759,0.258053 0 0 1 0.25443,-0.0021 L 29.48,65.19 a 0.236631,0.23328 0 0 1 0.124598,0.206443 0.251289,0.247731 0 0 1 -0.129833,0.20541 L 21.07,70.11 A 0.268042,0.264247 0 0 1 20.816617,70.1079 L 12.49,65.64 a 0.232442,0.229151 0 0 1 -0.125645,-0.201282 0.245007,0.241538 0 0 1 0.0356,-0.11664 z M 1.43,59.44 A 0.245007,0.241538 0 0 1 1.523186,59.35226 L 9.84,54.85 a 0.257571,0.253925 0 0 1 0.252336,-0.0021 L 18.33,59.31 a 0.235584,0.232248 0 0 1 0.12355,0.206443 0.249195,0.245667 0 0 1 -0.128786,0.20541 L 10.01,64.23 A 0.261759,0.258053 0 0 1 9.759758,64.2279 L 1.52,59.76 a 0.235584,0.232248 0 0 1 -0.124598,-0.201282 0.234536,0.231216 0 0 1 0.035599,-0.11664 z m 22.16,0.1 a 0.245007,0.241538 0 0 1 0.09319,-0.08774 L 32,54.95 a 0.257571,0.253925 0 0 1 0.252336,-0.0021 L 40.48,59.41 a 0.235584,0.232248 0 0 1 0.12355,0.206443 0.249195,0.245667 0 0 1 -0.128786,0.20541 L 32.16,64.32 A 0.261759,0.258053 0 0 1 31.909758,64.3179 L 23.68,59.86 a 0.235584,0.232248 0 0 1 -0.124598,-0.201282 0.238725,0.235345 0 0 1 0.0356,-0.11664 z M 12.44,53.73 a 0.253383,0.249796 0 0 1 0.09423,-0.08671 L 20.94,49.21 a 0.264901,0.26115 0 0 1 0.25443,-0.0021 L 29.52,53.61 a 0.230348,0.227087 0 0 1 0.124598,0.202314 0.247101,0.243602 0 0 1 -0.129833,0.202314 L 21.11,58.44 A 0.274324,0.27044 0 0 1 20.856617,58.4379 L 12.53,54.04 a 0.228254,0.225023 0 0 1 -0.125645,-0.198185 0.240819,0.237409 0 0 1 0.0356,-0.114576 z"
   class="st3"
   id="path22"
   inkscape:connector-curvature="0"
   style="fill:#59b4d9;stroke:none;stroke-width:12.23999977;stroke-linecap:butt" />
				</g>
				<g
   id="shape14921-9"
   transform="translate(7.87372,-27.2314)">
					<title
   id="title25">path10</title>
					<path
   d="m 11,89.63 a 0.248148,0.244635 0 0 1 0.09423,-0.08774 L 19.5,85.03 a 0.261759,0.258053 0 0 1 0.25443,-0.0021 L 28.08,89.5 a 0.236631,0.23328 0 0 1 0.124598,0.206443 0.251289,0.247731 0 0 1 -0.129833,0.20541 L 19.67,94.41 A 0.268042,0.264247 0 0 1 19.416617,94.4079 L 11.09,89.94 a 0.232442,0.229151 0 0 1 -0.125645,-0.201282 0.245007,0.241538 0 0 1 0.0356,-0.11664 z M 0.04,83.74 A 0.245007,0.241538 0 0 1 0.1331864,83.65226 L 8.44,79.15 A 0.257571,0.253925 0 0 1 8.692336,79.1479 L 16.93,83.62 a 0.235584,0.232248 0 0 1 0.12355,0.206443 0.249195,0.245667 0 0 1 -0.128786,0.20541 L 8.61,88.53 A 0.261759,0.258053 0 0 1 8.359758,88.5279 L 0.12,84.06 a 0.235584,0.232248 0 0 1 -0.124598,-0.201282 0.234536,0.231216 0 0 1 0.0355993,-0.11664 z m 22.15,0.1 a 0.245007,0.241538 0 0 1 0.09319,-0.08774 L 30.6,79.25 a 0.257571,0.253925 0 0 1 0.252336,-0.0021 L 39.08,83.72 a 0.235584,0.232248 0 0 1 0.12355,0.206443 0.249195,0.245667 0 0 1 -0.128786,0.20541 L 30.76,88.63 A 0.261759,0.258053 0 0 1 30.509758,88.6279 L 22.28,84.16 a 0.235584,0.232248 0 0 1 -0.124598,-0.201282 0.238725,0.235345 0 0 1 0.0356,-0.11664 z m -11.15,-5.8 a 0.253383,0.249796 0 0 1 0.09423,-0.08671 L 19.54,73.52 a 0.264901,0.26115 0 0 1 0.25443,-0.0021 L 28.12,77.91 a 0.230348,0.227087 0 0 1 0.124598,0.202314 0.247101,0.243602 0 0 1 -0.129833,0.202314 L 19.71,82.75 A 0.274324,0.27044 0 0 1 19.456617,82.7479 L 11.13,78.35 a 0.228254,0.225023 0 0 1 -0.125645,-0.198185 0.240819,0.237409 0 0 1 0.0356,-0.114576 z"
   class="st4"
   id="path27"
   inkscape:connector-curvature="0"
   style="fill:#ffffff;fill-opacity:0.2;stroke:none;stroke-width:12.23999977;stroke-linecap:butt" />
				</g>
				<g
   id="shape14922-11"
   transform="translate(15.0805,-4.78844)">
					<title
   id="title30">path12</title>
					<path
   d="m 33.28,63.86 c 0,-0.1 -0.08,-0.16 -0.11,-0.19 L 33.04,63.56 C 31.24,68.25 26.42,75.03 17.91,81.37 11.06,86.48 4.74,89.16 0,90.23 l 7.64,4.21 c 4.44,-1.81 9.1,-4.46 13.56,-7.79 4.92,-3.67 9.02,-7.69 12.08,-11.65 z"
   class="st5"
   id="path32"
   inkscape:connector-curvature="0"
   style="fill:#ffffff;fill-opacity:0.4;stroke:none;stroke-width:12.23999977;stroke-linecap:butt" />
				</g>
				<g
   id="shape14923-13">
					<title
   id="title35">path14</title>
					<path
   d="M 52.14,51.41 C 49.43,47.73 43.1,47.39 35.54,49.86 l 3.79,2.01 c 5.07,-1.22 8.78,-0.74 10.04,0.97 2.48,3.38 -2.41,14.63 -15.75,24.57 C 20.29,87.34 8.17,88.77 5.68,85.39 4.78,84.16 4.86,81.89 5.95,79.03 V 71.98 C 1.48,78.48 0,84.61 2.69,88.26 7.24,94.44 22,91.21 35.65,81.03 49.31,70.86 56.69,57.59 52.14,51.41 Z"
   class="st6"
   id="path37"
   inkscape:connector-curvature="0"
   style="fill:#804998;stroke:none;stroke-width:12.23999977;stroke-linecap:butt" />
				</g>
			</g>
		</g>
	</g>
</svg>

<svg xmlns="http://www.w3.org/2000/svg" xml:space="preserve" width="52.138" height="45.266" style="font-size:12px;overflow:visible;color-interpolation-filters:sRGB;fill-rule:evenodd;stroke-linecap:square;stroke-miterlimit:3" viewBox="0 0 52.138 45.266"><g transform="translate(-12.241 -12.236)"><title>Page-1</title><g transform="translate(10.895 -34.016)"><title>Managed Application Center.14916</title><title>g16</title><g transform="translate(28.413 -2.925)"><title>path4</title><path d="M.25 82.23c.05 0 .09-.01.13-.03l8.46-4.62a.24.237-180 0 0 .13-.21l.01-9.27a.248.245-180 0 0-.13-.213.275.271-180 0 0-.26 0L.13 72.51a.247.244-180 0 0-.126.212L0 81.99c0 .09.05.17.13.21q.06.03.12.03m0 12.21c.05 0 .09-.01.13-.03l8.46-4.62a.24.237-180 0 0 .13-.21l.01-9.27a.248.245-180 0 0-.13-.213.275.271-180 0 0-.26 0L.13 84.72a.247.244-180 0 0-.126.212L0 94.2c0 .09.05.17.13.21q.06.03.12.03m10.97-18.31c.05 0 .09-.01.13-.03l8.46-4.62a.24.236-180 0 0 .13-.21V62a.248.245-180 0 0-.13-.213.275.271-180 0 0-.26 0L11.09 66.4a.247.244-180 0 0-.126.212l.006 9.278c0 .09.05.16.12.21a.263.26-180 0 0 .128.032zm0 12.21c.05 0 .09-.01.13-.03l8.46-4.62a.239.235-180 0 0 .13-.21v-9.27a.248.245-180 0 0-.13-.213.275.271-180 0 0-.26 0l-8.46 4.613a.247.244-180 0 0-.126.212l.006 9.278c0 .09.05.16.12.21a.263.26-180 0 0 .128.032z" style="fill:#3999c6;stroke:none;stroke-width:12.23999977;stroke-linecap:butt"/></g><g transform="translate(28.413 -2.925)"><title>path6</title><path d="M.25 94.44c.05 0 .09-.01.13-.03l8.46-4.62a.24.237-180 0 0 .13-.21l.01-9.27a.248.245-180 0 0-.13-.213.275.271-180 0 0-.26 0L.13 84.72a.247.244-180 0 0-.126.212L0 94.2c0 .09.05.17.13.21q.06.03.12.03m10.97-6.1c.05 0 .09-.01.13-.03l8.46-4.62a.239.235-180 0 0 .13-.21v-9.27a.248.245-180 0 0-.13-.213.275.271-180 0 0-.26 0l-8.46 4.613a.247.244-180 0 0-.126.212l.006 9.278c0 .09.05.16.12.21a.263.26-180 0 0 .128.032zM.25 82.23c.05 0 .09-.01.13-.03l8.46-4.62a.24.237-180 0 0 .13-.21l.01-9.27a.248.245-180 0 0-.13-.213.275.271-180 0 0-.26 0L.13 72.51a.247.244-180 0 0-.126.212L0 81.99c0 .09.05.17.13.21q.06.03.12.03m10.97-6.1c.05 0 .09-.01.13-.03l8.46-4.62a.24.236-180 0 0 .13-.21V62a.248.245-180 0 0-.13-.213.275.271-180 0 0-.26 0L11.09 66.4a.247.244-180 0 0-.126.212l.006 9.278c0 .09.05.16.12.21a.263.26-180 0 0 .128.032z" style="fill:#62117a;fill-opacity:.15;stroke:none;stroke-width:12.23999977;stroke-linecap:butt"/></g><g transform="translate(6.475 -2.925)"><title>path8</title><path d="M19.69 82.23a.27.265 0 0 1-.13-.032L11.1 77.58a.24.237 0 0 1-.13-.21V68.1c0-.09.05-.17.13-.21a.275.271 0 0 1 .259 0l8.461 4.62c.08.04.12.12.12.21v9.27a.245.242 0 0 1-.126.21.268.264 0 0 1-.126.033zm0 12.21a.27.265 0 0 1-.13-.032L11.1 89.79a.24.237 0 0 1-.13-.21v-9.27c0-.09.05-.17.13-.21a.275.271 0 0 1 .259 0l8.461 4.62c.08.04.12.12.12.21v9.27a.245.242 0 0 1-.126.21.268.264 0 0 1-.126.033zM8.72 76.13a.27.265 0 0 1-.13-.032L.13 71.48a.24.236 0 0 1-.13-.21V62c0-.09.05-.17.13-.22a.275.271 0 0 1 .259 0L8.85 66.4c.08.05.13.13.13.21v9.28a.245.242 0 0 1-.126.21.263.26 0 0 1-.127.033zm0 12.21a.27.265 0 0 1-.13-.032L.13 83.69a.239.235 0 0 1-.13-.21v-9.27c0-.09.05-.17.13-.22a.275.271 0 0 1 .259 0l8.461 4.62c.08.05.13.13.13.21v9.28a.245.242 0 0 1-.126.21.263.26 0 0 1-.127.033zm3.68-23.02a.248.245 0 0 1 .094-.088L20.9 60.73a.262.258 0 0 1 .254-.002l8.326 4.462a.237.233 0 0 1 .125.206.251.248 0 0 1-.13.206L21.07 70.11a.268.264 0 0 1-.253-.002L12.49 65.64a.232.23 0 0 1-.126-.201.245.242 0 0 1 .036-.117zM1.43 59.44a.245.242 0 0 1 .093-.088L9.84 54.85a.258.254 0 0 1 .252-.002l8.238 4.462a.236.232 0 0 1 .124.206.25.246 0 0 1-.13.206L10.01 64.23a.262.258 0 0 1-.25-.002L1.52 59.76a.236.232 0 0 1-.125-.201.235.231 0 0 1 .036-.117zm22.16.1a.245.242 0 0 1 .093-.088L32 54.95a.258.254 0 0 1 .252-.002l8.228 4.462a.236.232 0 0 1 .124.206.25.246 0 0 1-.13.206L32.16 64.32a.262.258 0 0 1-.25-.002l-8.23-4.458a.236.232 0 0 1-.125-.201.239.235 0 0 1 .036-.117zm-11.15-5.81a.253.25 0 0 1 .094-.087l8.406-4.433a.265.261 0 0 1 .254-.002l8.326 4.402a.23.227 0 0 1 .125.202.247.244 0 0 1-.13.203L21.11 58.44a.274.27 0 0 1-.253-.002L12.53 54.04a.228.225 0 0 1-.126-.198.24.237 0 0 1 .036-.115z" style="fill:#59b4d9;stroke:none;stroke-width:12.23999977;stroke-linecap:butt"/></g><g transform="translate(7.874 -27.231)"><title>path10</title><path d="M11 89.63a.248.245 0 0 1 .094-.088L19.5 85.03a.262.258 0 0 1 .254-.002L28.08 89.5a.237.233 0 0 1 .125.206.251.248 0 0 1-.13.206L19.67 94.41a.268.264 0 0 1-.253-.002L11.09 89.94a.232.23 0 0 1-.126-.201.245.242 0 0 1 .036-.117zM.04 83.74a.245.242 0 0 1 .093-.088L8.44 79.15a.258.254 0 0 1 .252-.002l8.238 4.472a.236.232 0 0 1 .124.206.25.246 0 0 1-.13.206L8.61 88.53a.262.258 0 0 1-.25-.002L.12 84.06a.236.232 0 0 1-.125-.201.235.231 0 0 1 .036-.117zm22.15.1a.245.242 0 0 1 .093-.088L30.6 79.25a.258.254 0 0 1 .252-.002l8.228 4.472a.236.232 0 0 1 .124.206.25.246 0 0 1-.13.206L30.76 88.63a.262.258 0 0 1-.25-.002l-8.23-4.468a.236.232 0 0 1-.125-.201.239.235 0 0 1 .036-.117zm-11.15-5.8a.253.25 0 0 1 .094-.087l8.406-4.433a.265.261 0 0 1 .254-.002l8.326 4.392a.23.227 0 0 1 .125.202.247.244 0 0 1-.13.203L19.71 82.75a.274.27 0 0 1-.253-.002L11.13 78.35a.228.225 0 0 1-.126-.198.24.237 0 0 1 .036-.115z" style="fill:#fff;fill-opacity:.2;stroke:none;stroke-width:12.23999977;stroke-linecap:butt"/></g><g transform="translate(15.08 -4.788)"><title>path12</title><path d="M33.28 63.86c0-.1-.08-.16-.11-.19l-.13-.11c-1.8 4.69-6.62 11.47-15.13 17.81C11.06 86.48 4.74 89.16 0 90.23l7.64 4.21c4.44-1.81 9.1-4.46 13.56-7.79 4.92-3.67 9.02-7.69 12.08-11.65z" style="fill:#fff;fill-opacity:.4;stroke:none;stroke-width:12.23999977;stroke-linecap:butt"/></g><title>path14</title><path d="M52.14 51.41c-2.71-3.68-9.04-4.02-16.6-1.55l3.79 2.01c5.07-1.22 8.78-.74 10.04.97 2.48 3.38-2.41 14.63-15.75 24.57-13.33 9.93-25.45 11.36-27.94 7.98-.9-1.23-.82-3.5.27-6.36v-7.05C1.48 78.48 0 84.61 2.69 88.26c4.55 6.18 19.31 2.95 32.96-7.23 13.66-10.17 21.04-23.44 16.49-29.62" style="fill:#804998;stroke:none;stroke-width:12.23999977;stroke-linecap:butt"/></g></g></svg>
